X:1
T:Deutsche Muehlviertler Taenze nr. 14
C:traditionell
A:Muehlviertel, Oberoesterreich
%%textfont Helvetica-Narrow 10pt
%%begintext align
B:"Pfeifermusik aus dem Muehlviertel", Rupert Azesberger, herausgegeben von A.Ruttner
N:im buch nr. 44/6
S: mit der angabe: Sammlung B.Derschmidt
%%endtext 
F:http://simonwascher.info 
Z:abc transcription Simon Wascher
M:3/4
L:1/8
K:C
V:1
G2 |\
(cBc)(GAB) | c2G2e2 | (d^cd)(ABc) | d2A2f2 |\
(g^fg)B (dg) | c'g(fedc) | Bag2de | c4 :|
V:2
E2 |\
(EGE) (EFG) | A2 E2 G2 | (BAB) (FGA) | B2 F2 d2 |\
(ed e)G (Be) | ge (dc BA) | Gc B2 AG | E4 :|
V:1
|: g2 |\
c'2 (bc') g2 | eg (ce) (Ge) | (df) (Bd) (GB) | (ce g)c(eg) |\
c'2 (bc') g2 | eg (ce) (Ge) | (df) (Bd) (GB) | [c4E4] :|
V:2
|: e2 |\
a2 (ga) e2 | c2 A2 c2 | B2 G2 E2 | c2 e2 c2 |\
a2 (ga) e2 | c2 A2 c2 | B2 G2 E2 | E4 :|
%%wordsfont Times-Italic 11pt
W:aus Simon Waschers TradArchiv
